portfolio-htmlcssjs/img/img_service1.svg

<svg fill="none" height="69" viewBox="0 0 86 69" width="86" xmlns="http://www.w3.org/2000/svg"><path d="m8.6 12.8999c0-4.74341 3.8566-8.59997 8.6-8.59997h51.6c4.7434 0 8.6 3.85656 8.6 8.59997v34.4h-8.6v-34.4h-51.6v34.4h-8.6zm-8.6 41.28c0-1.4243 1.15563-2.58 2.58-2.58h80.84c1.4244 0 2.58 1.1557 2.58 2.58 0 5.6975-4.6225 10.32-10.32 10.32h-65.36c-5.6975 0-10.32-4.6225-10.32-10.32zm37.7594-26.0956-4.1656 4.1656 4.1656 4.1657c1.2631 1.2631 1.2631 3.3056 0 4.5553s-3.3056 1.2631-4.5553 0l-6.45-6.45c-1.2632-1.2632-1.2632-3.3057 0-4.5553l6.45-6.45c1.2631-1.2632 3.3056-1.2632 4.5553 0 1.2497 1.2631 1.2631 3.3056 0 4.5553zm15.05-4.5687 6.45 6.45c1.2631 1.2631 1.2631 3.3056 0 4.5553l-6.45 6.45c-1.2631 1.2631-3.3056 1.2631-4.5553 0-1.2497-1.2632-1.2632-3.3057 0-4.5553l4.1656-4.1657-4.1656-4.1656c-1.2632-1.2631-1.2632-3.3056 0-4.5553 1.2631-1.2497 3.3056-1.2631 4.5553 0z" fill="#7f7f7f"/></svg>

<svg width="86" height="69" viewBox="0 0 86 69" fill="none" xmlns="http://www.w3.org/2000/svg">
<path d="M8.6 12.8999C8.6 8.15649 12.4566 4.29993 17.2 4.29993H68.8C73.5434 4.29993 77.4 8.15649 77.4 12.8999V47.2999H68.8V12.8999H17.2V47.2999H8.6V12.8999ZM0 54.1799C0 52.7556 1.15563 51.5999 2.58 51.5999H83.42C84.8444 51.5999 86 52.7556 86 54.1799C86 59.8774 81.3775 64.4999 75.68 64.4999H10.32C4.6225 64.4999 0 59.8774 0 54.1799ZM37.7594 28.0843L33.5938 32.2499L37.7594 36.4156C39.0225 37.6787 39.0225 39.7212 37.7594 40.9709C36.4963 42.2206 34.4538 42.234 33.2041 40.9709L26.7541 34.5209C25.4909 33.2577 25.4909 31.2152 26.7541 29.9656L33.2041 23.5156C34.4672 22.2524 36.5097 22.2524 37.7594 23.5156C39.0091 24.7787 39.0225 26.8212 37.7594 28.0709V28.0843ZM52.8094 23.5156L59.2594 29.9656C60.5225 31.2287 60.5225 33.2712 59.2594 34.5209L52.8094 40.9709C51.5463 42.234 49.5038 42.234 48.2541 40.9709C47.0044 39.7077 46.9909 37.6652 48.2541 36.4156L52.4197 32.2499L48.2541 28.0843C46.9909 26.8212 46.9909 24.7787 48.2541 23.529C49.5172 22.2793 51.5597 22.2659 52.8094 23.529V23.5156Z" fill="#7F7F7F"/>
</svg>
